svgs/thin/truck-tow.svg

<svg xmlns="http://www.w3.org/2000/svg" viewBox="0 0 640 512"><!--! Font Awesome Pro 6.4.0 by @fontawesome - https://fontawesome.com License - https://fontawesome.com/license (Commercial License) Copyright 2023 Fonticons, Inc. --><path d="M209.9 256H366.1L157.6 21.4c-3-3.4-7.4-5.4-12-5.4H96c-2 0-3.9 .4-5.6 1l3.9 7.8L209.9 256zM384 252V152c0-22.1 17.9-40 40-40h66.3c16.1 0 31.4 6.9 42 18.9L630 241.6c6.4 7.3 10 16.7 10 26.5V376c0 22.1-17.9 40-40 40H576c0 53-43 96-96 96s-96-43-96-96H256c0 53-43 96-96 96s-96-43-96-96H40c-22.1 0-40-17.9-40-40V296c0-22.1 17.9-40 40-40H192L80 32V168c0 22.1-17.9 40-40 40s-40-17.9-40-40V152c0-4.4 3.6-8 8-8s8 3.6 8 8v16c0 13.3 10.7 24 24 24s24-10.7 24-24V32c0-5.8 1.6-11.3 4.3-16C73.8 6.4 84.2 0 96 0h49.6c9.1 0 17.8 3.9 23.9 10.7L384 252zm1.3 148c7.6-45.4 47.1-80 94.7-80s87.1 34.6 94.7 80H600c13.3 0 24-10.7 24-24V272H40c-13.3 0-24 10.7-24 24v80c0 13.3 10.7 24 24 24H65.3c7.6-45.4 47.1-80 94.7-80s87.1 34.6 94.7 80H385.3zM620.7 256c-.8-1.3-1.7-2.6-2.7-3.8L520.3 141.5c-7.6-8.6-18.5-13.5-30-13.5H424c-13.3 0-24 10.7-24 24V256H620.7zM240 416A80 80 0 1 0 80 416a80 80 0 1 0 160 0zm240 80a80 80 0 1 0 0-160 80 80 0 1 0 0 160z"/></svg>

<svg xmlns="http://www.w3.org/2000/svg" viewBox="0 0 640 512"><!--! Font Awesome Pro 6.3.0 by @fontawesome - https://fontawesome.com License - https://fontawesome.com/license (Commercial License) Copyright 2023 Fonticons, Inc. --><path d="M384 252V152C384 129.9 401.9 112 424 112H490.3C506.4 112 521.7 118.9 532.3 130.9L629.1 241.6C636.4 248.9 640 258.4 640 268.1V376C640 398.1 622.1 416 600 416H576C576 469 533 512 480 512C426.1 512 384 469 384 416H256C256 469 213 512 160 512C106.1 512 64 469 64 416H40C17.91 416 0 398.1 0 376V296C0 273.9 17.91 256 40 256H192L80 32V168C80 190.1 62.09 208 40 208C17.91 208 0 190.1 0 168V152C0 147.6 3.582 144 8 144C12.42 144 16 147.6 16 152V168C16 181.3 26.75 192 40 192C53.25 192 64 181.3 64 168V32C64 26.17 65.56 20.71 68.28 16C73.81 6.435 84.16 0 96 0H145.6C154.8 0 163.5 3.909 169.5 10.74L384 252zM209.9 256H366.1L157.6 21.37C154.6 17.95 150.2 16 145.6 16H96C94.03 16 92.14 16.36 90.39 17.01L209.9 256zM480 320C527.6 320 567.1 354.6 574.7 400H600C613.3 400 624 389.3 624 376V272H40C26.75 272 16 282.7 16 296V376C16 389.3 26.75 400 40 400H65.33C72.94 354.6 112.4 320 160 320C207.6 320 247.1 354.6 254.7 400H385.3C392.9 354.6 432.4 320 480 320zM620.7 256C619.9 254.7 619 253.4 617.1 252.2L520.3 141.5C512.7 132.9 501.8 128 490.3 128H424C410.7 128 400 138.7 400 152V256H620.7zM160 336C115.8 336 80 371.8 80 416C80 460.2 115.8 496 160 496C204.2 496 240 460.2 240 416C240 371.8 204.2 336 160 336zM480 496C524.2 496 560 460.2 560 416C560 371.8 524.2 336 480 336C435.8 336 400 371.8 400 416C400 460.2 435.8 496 480 496z"/></svg>
